images/pick-scooter.svg

<svg width="43" height="32" viewBox="0 0 43 32" fill="none" xmlns="http://www.w3.org/2000/svg">
<path d="M18.0698 30.301C17.8521 30.301 17.6389 30.3895 17.4852 30.5433C17.3314 30.697 17.2429 30.9105 17.2429 31.1279C17.2429 31.3453 17.3314 31.5588 17.4852 31.7125C17.6389 31.8663 17.8521 31.9548 18.0698 31.9548C18.2872 31.9548 18.5003 31.8663 18.6544 31.7125C18.8082 31.5588 18.8967 31.3462 18.8967 31.1279C18.8967 30.9105 18.8082 30.697 18.6544 30.5433C18.5003 30.3895 18.2872 30.301 18.0698 30.301Z" fill="black"/>
<path fill-rule="evenodd" clip-rule="evenodd" d="M34.5391 16.4188L32.6121 7.71309C33.1321 7.64268 33.5908 7.37815 33.9134 6.99507C34.2943 7.23312 34.7435 7.37136 35.2248 7.37136H36.8786C37.3353 7.37136 37.7054 7.00121 37.7054 6.54449V3.237C37.7054 2.78028 37.3353 2.41012 36.8786 2.41012H35.2248C34.7293 2.41012 34.2674 2.55676 33.8795 2.80838C33.501 2.38041 32.9483 2.10974 32.3333 2.10974H27.4522C26.5753 2.10974 25.8246 2.6598 25.5258 3.43273H23.5659C22.3805 3.43273 21.416 4.3972 21.416 5.5826C21.416 6.768 22.3805 7.73247 23.5659 7.73247H27.822V9.39882C27.822 9.85554 28.1922 10.2257 28.6489 10.2257C29.1056 10.2257 29.4758 9.85554 29.4758 9.39882V7.73247H30.9228L32.9984 17.1107L29.0701 24.1075C28.6408 24.8691 27.8314 25.3423 26.957 25.3423H17.1505C16.74 21.8995 13.8046 19.2208 10.2532 19.2208C8.68185 19.2208 7.19929 19.7328 5.96576 20.7011L5.96092 20.705C4.49225 21.8601 3.56912 23.5177 3.35401 25.3423H1.65568C1.76357 19.3978 6.63275 14.5955 12.6021 14.5955H18.4677C18.9306 14.5955 19.3075 14.9725 19.3075 15.4356V22.8617C19.3075 23.3184 19.6776 23.6885 20.1344 23.6885H24.5342C26.3291 23.6885 27.9832 22.7124 28.8508 21.1417C29.2523 20.415 29.4651 19.592 29.4658 18.7622L29.47 16.0151C29.4706 15.5584 29.1008 15.1876 28.6441 15.1869H28.6431C28.187 15.1869 27.8169 15.5564 27.8162 16.0125L27.812 18.7603C27.8117 19.3119 27.6702 19.8591 27.4034 20.342C26.8265 21.3859 25.7271 22.0345 24.5342 22.0345H20.9612V15.4353C20.9612 15.0119 20.8547 14.6126 20.6676 14.2628C21.4105 13.8336 21.9118 13.0312 21.9118 12.1136C21.9118 10.7457 20.7988 9.63299 19.4312 9.63299H16.4131C16.1231 9.63299 15.845 9.68338 15.5862 9.77511V2.52188C15.5862 1.15399 14.4732 0.0412598 13.1056 0.0412598H7.77132C3.90439 0.0412598 0.688631 2.88041 0.0975453 6.58325C0.0726744 6.66206 0.0591085 6.74572 0.0591085 6.8326C0.0591085 6.83523 0.0592753 6.83777 0.0594393 6.84027C0.0595982 6.84269 0.0597545 6.84508 0.0597545 6.84746C0.0203489 7.164 0 7.48603 0 7.81258V12.1139C0 13.3559 0.917636 14.3875 2.11047 14.5668L3.94154 16.3978C1.5155 18.6963 0 21.9463 0 25.5442V26.1692C0 26.6259 0.370155 26.996 0.826873 26.996H5.47384C5.46318 27.0493 5.45736 27.1049 5.45736 27.1614C5.45736 28.3614 5.90149 29.4592 6.63275 30.3009H0.826873C0.370155 30.3009 0 30.6714 0 31.1278C0 31.5845 0.370155 31.9547 0.826873 31.9547H10.1576L10.1852 31.9556C10.2079 31.9565 10.2305 31.9573 10.2532 31.9573C12.8976 31.9573 15.0491 29.8058 15.0491 27.1614C15.0491 27.1049 15.0433 27.0493 15.0326 26.996H26.957C28.259 26.996 29.4758 26.372 30.2384 25.3397H31.2855C31.0501 25.9127 30.9251 26.5303 30.9251 27.1614C30.9251 28.3614 31.3692 29.4592 32.1005 30.3009H21.3773C20.9205 30.3009 20.5504 30.6714 20.5504 31.1278C20.5504 31.5845 20.9205 31.9547 21.3773 31.9547H35.6253C35.6573 31.9557 35.689 31.9573 35.7209 31.9573C38.3653 31.9573 40.5168 29.8058 40.5168 27.1614C40.5168 26.5303 40.3918 25.9127 40.1563 25.3397H41.509C41.9658 25.3397 42.3359 24.9696 42.3359 24.5128C42.3359 20.1482 38.8653 16.5787 34.5391 16.4188ZM16.4131 11.2871H19.4312C19.887 11.2871 20.2581 11.6579 20.2581 12.1139C20.2581 12.5697 19.887 12.9408 19.4312 12.9408H16.4131C15.957 12.9408 15.5862 12.5697 15.5862 12.1139C15.5862 11.6579 15.957 11.2871 16.4131 11.2871ZM1.65604 7.71089L1.65604 7.7109C1.65489 7.74478 1.65375 7.7786 1.65375 7.81258V12.1139C1.65375 12.5697 2.02455 12.9408 2.4803 12.9408H2.48094H13.1053C13.5614 12.9408 13.9322 12.5697 13.9322 12.1139V2.5222C13.9322 2.06613 13.5614 1.69533 13.1053 1.69533H7.77132C5.02681 1.69533 2.69897 3.51187 1.92636 6.00605H10.7057C11.1625 6.00605 11.5326 6.37621 11.5326 6.83293C11.5326 7.28964 11.1625 7.6598 10.7057 7.6598H1.65762L1.65604 7.71089ZM4.47707 14.5946H6.36919C5.9719 14.8213 5.5885 15.0697 5.21964 15.3371L4.47707 14.5946ZM10.2852 30.3026C12.0029 30.2854 13.3953 28.8833 13.3953 27.1614C13.3953 27.1049 13.4012 27.0493 13.4118 26.996H7.09464C7.1053 27.0493 7.11111 27.1049 7.11111 27.1614C7.11111 28.862 8.46932 30.2502 10.1579 30.3009H10.2532C10.2593 30.3009 10.2654 30.3014 10.2715 30.3018C10.2761 30.3021 10.2806 30.3024 10.2852 30.3026ZM5.02261 25.3423C5.22739 24.0287 5.91731 22.842 6.98288 22.0051C6.98547 22.0035 6.98773 22.0012 6.99031 21.9996C7.92894 21.2638 9.05717 20.8746 10.2532 20.8746C12.8915 20.8746 15.0849 22.8142 15.4832 25.3423H5.02261ZM36.0517 4.06387H35.2248C34.7687 4.06387 34.3979 4.43499 34.3979 4.89074C34.3979 5.34682 34.7687 5.71762 35.2248 5.71762H36.0517V4.06387ZM23.0698 5.5826C23.0698 5.30902 23.2923 5.08648 23.5659 5.08648H25.3876V5.66787C25.3876 5.8087 25.4018 5.94598 25.4286 6.07873H23.5659C23.2923 6.07873 23.0698 5.85618 23.0698 5.5826ZM27.4522 6.07873H28.6489H32.3333C32.5598 6.07873 32.7442 5.89462 32.7442 5.66787V4.17434C32.7442 3.94791 32.5598 3.76348 32.3333 3.76348H27.4522C27.2258 3.76348 27.0413 3.94791 27.0413 4.17434V5.66787C27.0413 5.89462 27.2258 6.07873 27.4522 6.07873ZM38.863 27.1614C38.863 28.8833 37.4706 30.2854 35.7529 30.3026C35.7507 30.3025 35.7484 30.3024 35.7462 30.3023C35.7438 30.3021 35.7415 30.302 35.7392 30.3018C35.7331 30.3014 35.727 30.301 35.7209 30.301H35.6256C33.937 30.2502 32.5788 28.862 32.5788 27.1614C32.5788 26.5044 32.7836 25.8694 33.1609 25.3397H38.281C38.6583 25.8694 38.863 26.5044 38.863 27.1614ZM34.3563 18.07L31.2032 23.686H40.6292C40.2274 20.5597 37.5762 18.1291 34.3563 18.07Z" fill="#495567"/>
<path d="M28.6489 13.5334C29.1056 13.5334 29.4758 13.1632 29.4758 12.7065C29.4758 12.2498 29.1056 11.8796 28.6489 11.8796H28.646C28.1893 11.8796 27.8204 12.2498 27.8204 12.7065C27.8204 13.1632 28.1922 13.5334 28.6489 13.5334Z" fill="black"/>
</svg>

<svg width="43" height="32" fill="none" xmlns="http://www.w3.org/2000/svg"><path d="M18.07 30.301a.833.833 0 00-.585.242.833.833 0 00-.242.585c0 .217.088.43.242.584a.833.833 0 00.585.243c.217 0 .43-.089.584-.242a.832.832 0 00.243-.585.833.833 0 00-.243-.585.834.834 0 00-.584-.242z" fill="#000"/><path fill-rule="evenodd" clip-rule="evenodd" d="M34.54 16.419l-1.928-8.706c.52-.07.979-.335 1.301-.718.381.238.83.376 1.312.376h1.654c.456 0 .826-.37.826-.827V3.237a.827.827 0 00-.826-.827h-1.654c-.496 0-.958.147-1.346.398a2.06 2.06 0 00-1.546-.698h-4.88c-.878 0-1.628.55-1.927 1.323h-1.96c-1.185 0-2.15.964-2.15 2.15 0 1.185.965 2.15 2.15 2.15h4.256v1.666a.827.827 0 101.654 0V7.732h1.447l2.075 9.379-3.928 6.997a2.429 2.429 0 01-2.113 1.234h-9.806c-.411-3.442-3.346-6.121-6.898-6.121a6.88 6.88 0 00-4.287 1.48l-.005.004a6.906 6.906 0 00-2.607 4.637H1.656c.108-5.944 4.977-10.746 10.946-10.746h5.866c.463 0 .84.377.84.84v7.426c0 .456.37.827.826.827h4.4a4.932 4.932 0 004.932-4.927l.004-2.747a.827.827 0 00-1.654-.003l-.004 2.748a3.279 3.279 0 01-3.278 3.274h-3.573v-6.599a2.48 2.48 0 00-.293-1.172 2.482 2.482 0 001.244-2.15 2.483 2.483 0 00-2.48-2.48h-3.019c-.29 0-.568.05-.827.142V2.522a2.484 2.484 0 00-2.48-2.48H7.77C3.904.041.69 2.88.098 6.582a.827.827 0 00-.039.25v.007a7.81 7.81 0 00-.06.972v4.302c.001 1.242.919 2.273 2.111 2.453l1.832 1.83A12.568 12.568 0 000 25.545v.625c0 .457.37.827.827.827h4.647a.845.845 0 00-.017.165c0 1.2.444 2.298 1.176 3.14H.827a.827.827 0 000 1.654h9.358c.023.002.045.002.068.002a4.801 4.801 0 004.796-4.796.842.842 0 00-.016-.165h11.924a4.085 4.085 0 003.281-1.656h1.047A4.772 4.772 0 0032.1 30.3H21.377a.827.827 0 000 1.654h14.248l.096.002a4.801 4.801 0 004.796-4.796 4.79 4.79 0 00-.36-1.821h1.352c.457 0 .827-.37.827-.827 0-4.365-3.47-7.934-7.797-8.094zm-18.127-5.132h3.018a.828.828 0 010 1.654h-3.018a.828.828 0 010-1.654zM1.656 7.711a2.993 2.993 0 00-.002.102v4.3c0 .457.37.828.826.828h10.625a.828.828 0 00.827-.827V2.522a.828.828 0 00-.827-.827H7.771a6.128 6.128 0 00-5.845 4.311h8.78a.827.827 0 110 1.654H1.658l-.002.05zm2.821 6.884H6.37c-.397.226-.78.475-1.15.742l-.742-.742zm5.808 15.708a3.145 3.145 0 003.11-3.142.85.85 0 01.017-.165H7.095c.01.053.016.109.016.165 0 1.701 1.358 3.09 3.047 3.14h.113l.014.002zm-5.262-4.96a5.26 5.26 0 011.96-3.338L6.99 22a5.24 5.24 0 013.263-1.125 5.303 5.303 0 015.23 4.467H5.023zm31.029-21.28h-.827a.828.828 0 000 1.655h.827V4.064zM23.07 5.584c0-.274.222-.497.496-.497h1.822v.582c0 .14.014.278.04.41h-1.862a.497.497 0 01-.496-.495zm4.382.496h4.881c.227 0 .411-.184.411-.411V4.174a.411.411 0 00-.41-.41h-4.882a.412.412 0 00-.41.41v1.494c0 .227.184.41.41.41zM38.863 27.16a3.145 3.145 0 01-3.11 3.142h-.007l-.007-.001-.018-.001h-.095a3.145 3.145 0 01-3.047-3.14c0-.657.205-1.292.582-1.821h5.12c.377.53.582 1.164.582 1.821zm-4.507-9.091l-3.153 5.616h9.426a6.454 6.454 0 00-6.273-5.616z" fill="#495567"/><path d="M28.649 13.533a.827.827 0 100-1.653h-.003a.826.826 0 10.003 1.653z" fill="#000"/></svg>
